icons/HSB-Collections/48x48/apps/org.gnome.DiskUtility.svg

<svg xmlns="http://www.w3.org/2000/svg" width="48" height="48" version="1.1">
 <rect style="opacity:0.2" width="30" height="40" x="9" y="5" rx="3" ry="3.253"/>
 <rect style="fill:#e4e4e4" width="30" height="40" x="9" y="4" rx="3" ry="3.253"/>
 <path style="fill:#ababab" d="m 12,6 c -0.552285,0 -1,0.4477153 -1,1 0,0.5522847 0.447715,1 1,1 0.552285,0 1,-0.4477153 1,-1 0,-0.5522847 -0.447715,-1 -1,-1 z m 4.054688,0 c -0.800222,0 -1.44336,0.669 -1.44336,1.5 0,1.2426413 -0.969394,2.25 -2.166016,2.25 C 11.645093,9.75 11,10.419 11,11.25 v 3 c 0,0.831001 0.645091,1.5 1.445312,1.5 1.196622,0 2.166016,1.007358 2.166016,2.25 -0.0012,0.553932 -0.198108,1.08802 -0.554687,1.5 -2.138561,2.472236 -3.05152,5.676756 -3.056641,9 0,0.04461 0.0054,0.07549 0.0059,0.119141 C 11.002046,28.746059 11.000093,28.873025 11,29 c 0,7.179702 5.820298,13 13,13 7.179702,0 13,-5.820298 13,-13 6.3e-5,-0.132183 -0.0019,-0.26436 -0.0059,-0.396484 C 36.994455,28.565463 37,28.538778 37,28.5 36.9943,25.176442 36.082755,21.971883 33.943359,19.5 33.58691,19.087968 33.389543,18.553883 33.388672,18 c 0,-1.242642 0.969397,-2.25 2.166016,-2.25 C 36.354909,15.75 37,15.081001 37,14.25 v -3 c 0,-0.831 -0.645091,-1.5 -1.445312,-1.5 -1.196619,0 -2.166016,-1.0073587 -2.166016,-2.25 0,-0.831 -0.643138,-1.5 -1.44336,-1.5 z M 36,6 c -0.552285,0 -1,0.4477153 -1,1 0,0.5522847 0.447715,1 1,1 0.552285,0 1,-0.4477153 1,-1 C 37,6.4477153 36.552285,6 36,6 Z M 12,17 c -0.552285,0 -1,0.447715 -1,1 0,0.552285 0.447715,1 1,1 0.552285,0 1,-0.447715 1,-1 0,-0.552285 -0.447715,-1 -1,-1 z m 24,0 c -0.552285,0 -1,0.447715 -1,1 0,0.552285 0.447715,1 1,1 0.552285,0 1,-0.447715 1,-1 0,-0.552285 -0.447715,-1 -1,-1 z M 12,40 c -0.552285,0 -1,0.447715 -1,1 0,0.552285 0.447715,1 1,1 0.552285,0 1,-0.447715 1,-1 0,-0.552285 -0.447715,-1 -1,-1 z m 24,0 c -0.552285,0 -1,0.447715 -1,1 0,0.552285 0.447715,1 1,1 0.552285,0 1,-0.447715 1,-1 0,-0.552285 -0.447715,-1 -1,-1 z"/>
 <path style="opacity:0.1" d="m 12,6 c -0.552285,0 -1,0.4477153 -1,1 2.41e-4,0.1756086 0.04672,0.3480575 0.134766,0.5 C 11.313257,7.1908437 11.643017,7.0002826 12,7 12.356983,7.0002826 12.686743,7.1908437 12.865234,7.5 12.953279,7.3480575 12.999759,7.1756086 13,7 13,6.4477153 12.552285,6 12,6 Z m 4.054688,0 c -0.800222,0 -1.44336,0.669 -1.44336,1.5 0,1.2426413 -0.969394,2.25 -2.166016,2.25 C 11.645093,9.75 11,10.419 11,11.25 v 1 c 0,-0.831 0.645094,-1.5 1.445312,-1.5 1.196623,0 2.166016,-1.0073587 2.166016,-2.25 0,-0.831 0.643138,-1.5 1.44336,-1.5 h 15.890624 c 0.800222,0 1.44336,0.669 1.44336,1.5 0,1.2426413 0.969397,2.25 2.166016,2.25 C 36.354909,10.75 37,11.419 37,12.25 v -1 c 0,-0.831 -0.645091,-1.5 -1.445312,-1.5 -1.196619,0 -2.166016,-1.0073587 -2.166016,-2.25 0,-0.831 -0.643138,-1.5 -1.44336,-1.5 z M 36,6 c -0.552285,0 -1,0.4477153 -1,1 2.41e-4,0.1756086 0.04672,0.3480575 0.134766,0.5 C 35.313257,7.1908437 35.643017,7.0002826 36,7 36.356983,7.0002826 36.686743,7.1908437 36.865234,7.5 36.953279,7.3480575 36.999759,7.1756086 37,7 37,6.4477153 36.552285,6 36,6 Z M 12,17 c -0.552285,0 -1,0.447715 -1,1 2.41e-4,0.175609 0.04672,0.348057 0.134766,0.5 C 11.313257,18.190844 11.643017,18.000283 12,18 c 0.356983,2.83e-4 0.686743,0.190844 0.865234,0.5 C 12.953279,18.348057 12.999759,18.175609 13,18 13,17.447715 12.552285,17 12,17 Z m 24,0 c -0.552285,0 -1,0.447715 -1,1 2.41e-4,0.175609 0.04672,0.348057 0.134766,0.5 C 35.313257,18.190844 35.643017,18.000283 36,18 c 0.356983,2.83e-4 0.686743,0.190844 0.865234,0.5 C 36.953279,18.348057 36.999759,18.175609 37,18 37,17.447715 36.552285,17 36,17 Z M 14.550781,18.494141 C 14.469509,18.86497 14.304978,19.213079 14.056641,19.5 11.91808,21.972236 11.005121,25.176756 11,28.5 c 0,0.04461 0.0054,0.07549 0.0059,0.119141 C 11.002046,28.746059 11.000093,28.873025 11,29 c 3.86e-4,0.116557 0.0023,0.233104 0.0059,0.349609 0.03222,-3.269183 0.944639,-6.41485 3.050782,-8.849609 0.356579,-0.41198 0.553487,-0.946068 0.554687,-1.5 0,-0.174747 -0.02427,-0.342566 -0.06055,-0.505859 z m 18.898438,0 c -0.03628,0.163293 -0.06055,0.331112 -0.06055,0.505859 8.71e-4,0.553883 0.198238,1.087968 0.554687,1.5 2.109909,2.437813 3.020474,5.588881 3.050782,8.863281 0.0036,-0.12106 0.0056,-0.242166 0.0059,-0.363281 6.3e-5,-0.132183 -0.0019,-0.26436 -0.0059,-0.396484 C 36.994455,28.565463 37,28.538778 37,28.5 c -0.0057,-3.323558 -0.917245,-6.528117 -3.056641,-9 -0.248246,-0.286957 -0.412852,-0.635044 -0.49414,-1.005859 z M 12,40 c -0.552285,0 -1,0.447715 -1,1 2.41e-4,0.175609 0.04672,0.348057 0.134766,0.5 C 11.313257,41.190844 11.643017,41.000283 12,41 c 0.356983,2.83e-4 0.686743,0.190844 0.865234,0.5 C 12.953279,41.348057 12.999759,41.175609 13,41 13,40.447715 12.552285,40 12,40 Z m 24,0 c -0.552285,0 -1,0.447715 -1,1 2.41e-4,0.175609 0.04672,0.348057 0.134766,0.5 C 35.313257,41.190844 35.643017,41.000283 36,41 c 0.356983,2.83e-4 0.686743,0.190844 0.865234,0.5 C 36.953279,41.348057 36.999759,41.175609 37,41 37,40.447715 36.552285,40 36,40 Z"/>
 <path style="opacity:0.1" d="m 23.512309,18 c -0.866829,0 -1.707002,0.199291 -2.481742,0.46917 l 4.091527,4.088144 c 0.840811,0.840098 0.840811,2.17569 0,3.015835 l -1.542707,1.541429 c -0.840815,0.840098 -2.177527,0.840098 -3.018342,0 L 16.469522,23.026437 C 16.1994,23.800503 16,24.639996 16,25.506116 c 0,4.145504 3.363377,7.506073 7.512309,7.506073 0.866832,0 1.707006,-0.199291 2.48175,-0.469123 l 11.144193,11.158601 c 3.582108,3.588995 8.072098,-1.039625 4.628107,-4.490235 L 30.555097,27.985799 c 0.270117,-0.774067 0.469514,-1.61356 0.469514,-2.479679 C 31.024611,21.360616 27.661238,18 23.512301,18 Z"/>
 <path style="fill:#4f4f4f" d="m 23.512309,17 c -0.866829,0 -1.707002,0.199291 -2.481742,0.46917 l 4.091527,4.088144 c 0.840811,0.840098 0.840811,2.17569 0,3.015835 l -1.542707,1.541429 c -0.840815,0.840098 -2.177527,0.840098 -3.018342,0 L 16.469522,22.026437 C 16.1994,22.800503 16,23.639996 16,24.506116 c 0,4.145504 3.363377,7.506073 7.512309,7.506073 0.866832,0 1.707006,-0.199291 2.48175,-0.469123 l 11.144193,11.158601 c 3.582108,3.588995 8.072098,-1.039625 4.628107,-4.490235 L 30.555097,26.985799 c 0.270117,-0.774067 0.469514,-1.61356 0.469514,-2.479679 C 31.024611,20.360616 27.661238,17 23.512301,17 Z"/>
 <path style="fill:#ffffff;opacity:0.2" d="M 12 4 C 10.338 4 9 5.4499311 9 7.2519531 L 9 8.2519531 C 9 6.4499311 10.338 5 12 5 L 36 5 C 37.662 5 39 6.4499311 39 8.2519531 L 39 7.2519531 C 39 5.4499311 37.662 4 36 4 L 12 4 z"/>
</svg>

<svg xmlns="http://www.w3.org/2000/svg" width="48" height="48" version="1.1">
 <rect style="opacity:0.2" width="30" height="40" x="9" y="5" rx="3" ry="3"/>
 <rect style="fill:#e4e4e4" width="30" height="40" x="9" y="4" rx="3" ry="3"/>
 <path style="fill:#ababab" d="M 12,6 A 1,1 0 0 0 11,7 1,1 0 0 0 12,8 1,1 0 0 0 13,7 1,1 0 0 0 12,6 Z M 36,6 A 1,1 0 0 0 35,7 1,1 0 0 0 36,8 1,1 0 0 0 37,7 1,1 0 0 0 36,6 Z M 12,17 A 1,1 0 0 0 11,18 1,1 0 0 0 12,19 1,1 0 0 0 13,18 1,1 0 0 0 12,17 Z M 36,17 A 1,1 0 0 0 35,18 1,1 0 0 0 36,19 1,1 0 0 0 37,18 1,1 0 0 0 36,17 Z M 12,40 A 1,1 0 0 0 11,41 1,1 0 0 0 12,42 1,1 0 0 0 13,41 1,1 0 0 0 12,40 Z M 36,40 A 1,1 0 0 0 35,41 1,1 0 0 0 36,42 1,1 0 0 0 37,41 1,1 0 0 0 36,40 Z M 16,6 C 15,6 15,7 15,7 15,8.62 13.69,10 12,10 11,10 11,11 11,11 V 14 C 11,15 12,15 12,15 13.64,15 15,16.32 15,18 15,18.55 14.86,19.29 14.24,20 12.11,22.47 11,26.49 11,28.5 V 29 C 11,36.18 16.82,42 24,42 31.18,42 37,36.18 37,29 V 28.5 C 37,26.46 35.92,22.47 33.78,20 33.16,19.28 33,18.53 33,18 33,16.29 34.4,15 36,15 36,15 37,15 37,14 V 11 C 37,11 37,10 36,10 34.33,10 33,8.63 33,7 33,7 33,6 32,6 Z"/>
 <path style="opacity:0.2" d="M 12 6 A 1 1 0 0 0 11 7 A 1 1 0 0 0 11.135 7.5 A 1 1 0 0 1 12 7 A 1 1 0 0 1 12.863 7.502 A 1 1 0 0 0 13 7 A 1 1 0 0 0 12 6 z M 16 6 C 15 6 15 7 15 7 C 15 8.62 13.69 10 12 10 C 11 10 11 11 11 11 L 11 12 C 11 12 11 11 12 11 C 13.69 11 15 9.62 15 8 C 15 8 15 7 16 7 L 32 7 C 33 7 33 8 33 8 C 33 9.63 34.33 11 36 11 C 37 11 37 12 37 12 L 37 11 C 37 11 37 10 36 10 C 34.33 10 33 8.63 33 7 C 33 7 33 6 32 6 L 16 6 z M 36 6 A 1 1 0 0 0 35 7 A 1 1 0 0 0 35.135 7.5 A 1 1 0 0 1 36 7 A 1 1 0 0 1 36.863 7.502 A 1 1 0 0 0 37 7 A 1 1 0 0 0 36 6 z M 12 17 A 1 1 0 0 0 11 18 A 1 1 0 0 0 11.135 18.5 A 1 1 0 0 1 12 18 A 1 1 0 0 1 12.863 18.502 A 1 1 0 0 0 13 18 A 1 1 0 0 0 12 17 z M 36 17 A 1 1 0 0 0 35 18 A 1 1 0 0 0 35.135 18.5 A 1 1 0 0 1 36 18 A 1 1 0 0 1 36.863 18.502 A 1 1 0 0 0 37 18 A 1 1 0 0 0 36 17 z M 33.045 18.488 C 33.017 18.654 33 18.824 33 19 C 33 19.53 33.159 20.28 33.779 21 C 35.84 23.379 36.916 27.163 36.992 29.262 C 36.994 29.174 37 29.088 37 29 L 37 28.5 C 37 26.46 35.919 22.47 33.779 20 C 33.331 19.48 33.126 18.946 33.045 18.488 z M 14.957 18.512 C 14.88 18.97 14.684 19.492 14.24 20 C 12.11 22.47 11 26.49 11 28.5 L 11 29 C 11 29.095 11.006 29.189 11.008 29.283 C 11.08 27.214 12.182 23.386 14.24 21 C 14.86 20.29 15 19.55 15 19 C 15 18.833 14.983 18.671 14.957 18.512 z M 12 40 A 1 1 0 0 0 11 41 A 1 1 0 0 0 11.135 41.5 A 1 1 0 0 1 12 41 A 1 1 0 0 1 12.863 41.502 A 1 1 0 0 0 13 41 A 1 1 0 0 0 12 40 z M 36 40 A 1 1 0 0 0 35 41 A 1 1 0 0 0 35.135 41.5 A 1 1 0 0 1 36 41 A 1 1 0 0 1 36.863 41.502 A 1 1 0 0 0 37 41 A 1 1 0 0 0 36 40 z"/>
 <path style="opacity:0.2" d="m23.512 18c-0.867 0-1.707 0.199-2.482 0.469l4.092 4.088c0.841 0.84 0.841 2.176 0 3.016l-1.543 1.541c-0.841 0.84-2.178 0.84-3.018 0l-4.092-4.088c-0.27 0.774-0.47 1.614-0.47 2.48 0 4.146 3.363 7.506 7.512 7.506 0.867 0 1.707-0.199 2.482-0.469l11.144 11.159c3.582 3.589 8.072-1.04 4.628-4.49l-11.211-11.226c0.27-0.774 0.47-1.614 0.47-2.48 0-4.146-3.363-7.506-7.512-7.506z"/>
 <path style="fill:#4f4f4f" d="m23.512 17c-0.867 0-1.707 0.199-2.482 0.469l4.092 4.088c0.841 0.84 0.841 2.176 0 3.016l-1.543 1.541c-0.841 0.84-2.178 0.84-3.018 0l-4.092-4.088c-0.27 0.774-0.47 1.614-0.47 2.48 0 4.146 3.363 7.506 7.512 7.506 0.867 0 1.707-0.199 2.482-0.469l11.144 11.159c3.582 3.589 8.072-1.04 4.628-4.49l-11.211-11.226c0.27-0.774 0.47-1.614 0.47-2.48 0-4.146-3.363-7.506-7.512-7.506z"/>
</svg>
